X: 27520
T: Momo's Tune
R: jig
M: 6/8
K: Bminor
d2c|:B2f f2d|e2f d2c|B2f f2d|1 e3 d2c:|2 e3-e2A||
|:e2f g2a|g2f f2e|f2e d2c|B3 d2e|
f3 fgf|e2d c2g|f2e d2c|1 B3 e2e:|2 B3||

